ix/gallery-import_outline.svg

<svg viewBox="0 0 24 24" fill="none" xmlns="http://www.w3.org/2000/svg" height="1em" width="1em">
  <path d="M9 10.75C7.48 10.75 6.25 9.52 6.25 8C6.25 6.48 7.48 5.25 9 5.25C10.52 5.25 11.75 6.48 11.75 8C11.75 9.52 10.52 10.75 9 10.75ZM9 6.75C8.31 6.75 7.75 7.31 7.75 8C7.75 8.69 8.31 9.25 9 9.25C9.69 9.25 10.25 8.69 10.25 8C10.25 7.31 9.69 6.75 9 6.75Z" fill="#292D32"/>
  <path d="M15 22.75H9C3.57 22.75 1.25 20.43 1.25 15V9C1.25 3.57 3.57 1.25 9 1.25H13C13.41 1.25 13.75 1.59 13.75 2C13.75 2.41 13.41 2.75 13 2.75H9C4.39 2.75 2.75 4.39 2.75 9V15C2.75 19.61 4.39 21.25 9 21.25H15C19.61 21.25 21.25 19.61 21.25 15V10C21.25 9.59 21.59 9.25 22 9.25C22.41 9.25 22.75 9.59 22.75 10V15C22.75 20.43 20.43 22.75 15 22.75Z" fill="#292D32"/>
  <path d="M18 8.75C17.9 8.75 17.81 8.73 17.71 8.69C17.43 8.58 17.25 8.3 17.25 8V2C17.25 1.59 17.59 1.25 18 1.25C18.41 1.25 18.75 1.59 18.75 2V6.19L19.47 5.47C19.76 5.18 20.24 5.18 20.53 5.47C20.82 5.76 20.82 6.24 20.53 6.53L18.53 8.53C18.39 8.67 18.2 8.75 18 8.75Z" fill="#292D32"/>
  <path d="M17.9995 8.74994C17.8095 8.74994 17.6195 8.67994 17.4695 8.52994L15.4695 6.52994C15.1795 6.23994 15.1795 5.75994 15.4695 5.46994C15.7595 5.17994 16.2395 5.17994 16.5295 5.46994L18.5295 7.46994C18.8195 7.75994 18.8195 8.23994 18.5295 8.52994C18.3795 8.67994 18.1895 8.74994 17.9995 8.74994Z" fill="#292D32"/>
  <path d="M2.67075 19.7001C2.43075 19.7001 2.19075 19.5801 2.05075 19.3701C1.82075 19.0301 1.91075 18.5601 2.26075 18.3301L7.19075 15.0201C8.27075 14.2901 9.76075 14.3801 10.7407 15.2101L11.0707 15.5001C11.5707 15.9301 12.4207 15.9301 12.9107 15.5001L17.0707 11.9301C18.1307 11.0201 19.8007 11.0201 20.8707 11.9301L22.5007 13.3301C22.8107 13.6001 22.8507 14.0701 22.5807 14.3901C22.3107 14.7001 21.8407 14.7401 21.5207 14.4701L19.8907 13.0701C19.3907 12.6401 18.5407 12.6401 18.0407 13.0701L13.8807 16.6401C12.8207 17.5501 11.1507 17.5501 10.0807 16.6401L9.75075 16.3501C9.29075 15.9601 8.53075 15.9201 8.02075 16.2701L3.09075 19.5801C2.96075 19.6601 2.81075 19.7001 2.67075 19.7001Z" fill="#292D32"/>
</svg>

<svg viewBox="0 0 24 24" fill="none" xmlns="http://www.w3.org/2000/svg" height="1em" width="1em">
  <path d="M9 10.75c-1.52 0-2.75-1.23-2.75-2.75S7.48 5.25 9 5.25 11.75 6.48 11.75 8 10.52 10.75 9 10.75Zm0-4a1.25 1.25 0 1 0 0 2.5 1.25 1.25 0 0 0 0-2.5Z" fill="#292D32"/>
  <path d="M15 22.75H9c-5.43 0-7.75-2.32-7.75-7.75V9c0-5.43 2.32-7.75 7.75-7.75h4c.41 0 .75.34.75.75s-.34.75-.75.75H9C4.39 2.75 2.75 4.39 2.75 9v6c0 4.61 1.64 6.25 6.25 6.25h6c4.61 0 6.25-1.64 6.25-6.25v-5c0-.41.34-.75.75-.75s.75.34.75.75v5c0 5.43-2.32 7.75-7.75 7.75Z" fill="#292D32"/>
  <path d="M18 8.75c-.1 0-.19-.02-.29-.06a.74.74 0 0 1-.46-.69V2c0-.41.34-.75.75-.75s.75.34.75.75v4.19l.72-.72c.29-.29.77-.29 1.06 0 .29.29.29.77 0 1.06l-2 2a.75.75 0 0 1-.53.22Z" fill="#292D32"/>
  <path d="M18 8.75c-.19 0-.38-.07-.53-.22l-2-2a.754.754 0 0 1 0-1.06c.29-.29.77-.29 1.06 0l2 2c.29.29.29.77 0 1.06-.15.15-.34.22-.53.22ZM2.67 19.7a.746.746 0 0 1-.41-1.37l4.93-3.31c1.08-.73 2.57-.64 3.55.19l.33.29c.5.43 1.35.43 1.84 0l4.16-3.57c1.06-.91 2.73-.91 3.8 0l1.63 1.4c.31.27.35.74.08 1.06-.27.31-.74.35-1.06.08l-1.63-1.4c-.5-.43-1.35-.43-1.85 0l-4.16 3.57c-1.06.91-2.73.91-3.8 0l-.33-.29c-.46-.39-1.22-.43-1.73-.08l-4.93 3.31c-.13.08-.28.12-.42.12Z" fill="#292D32"/>
</svg>
